X: 19
T:Smith's a Gallant Fireman, The
T:Carrick's Rant
M:4/4
L:1/8
R:Strathspey
K:D
d|"D"D3 F A/A/A A>F|"D"A>Bd>A F/F/F F>D|"Em"E2 E>F B/B/B B>A|"Bm"d>fe>d"
G" B/B/B (3Bcd|!
"D"D3 F A/A/A A>F|"D"A>Bd>A F/F/F F>D|"G"G>B GA F<A|"Em"E>DE>F "
A7"B/B/B B||!
c|"D"d2 d>f d/d/d d>A|"D"B>Ad>A F/F/F F>D|"Em"~e3f e/e/e e>f|"A7"g>fe>d 
B/B/B B>c|!
"D"d2 d>f d/d/d d>A|"D"B>Ad>A F/F/F F>D|"G"G>B GA F<A|"Em"E>DE>F
 "A7"B/B/B B||
